public/water-mark.svg

<svg height="229.166" width="825.001" xmlns="http://www.w3.org/2000/svg"><g fill="#ece6de"><path d="m218.017 111.008a63.987 63.987 0 0 0 20.317-46.84 64.167 64.167 0 0 0 -64.167-64.165h-174.167v229.167h183.334a64.165 64.165 0 0 0 64.166-64.165 64.112 64.112 0 0 0 -29.483-53.991m-126.35-42.257h48.125a11.458 11.458 0 1 1 0 22.915h-48.125zm68.75 80.207a11.458 11.458 0 0 1 -11.458 11.458h-57.292v-22.915h57.292a11.458 11.458 0 0 1 11.458 11.457"/><path d="m256.667 0h91.667v229.166h-91.667z"/><path d="m357.5 0v73.333h68.75v155.837h91.667v-155.837h68.75v-73.333z"/><path d="m595.834 0v73.333h68.75v155.837h91.667v-155.837h68.75v-73.333z"/></g></svg>

<svg xmlns="http://www.w3.org/2000/svg" width="825.001" height="229.166"><g data-name="Grupo 115" fill="#ece6de"><path data-name="Trazado 30" d="M218.017 111.008a63.987 63.987 0 0020.317-46.84A64.167 64.167 0 00174.167.003H0V229.17h183.334a64.165 64.165 0 0064.166-64.165 64.112 64.112 0 00-29.483-53.991M91.667 68.757h48.125a11.458 11.458 0 110 22.915H91.667zm68.75 80.207a11.458 11.458 0 01-11.458 11.458H91.667v-22.915h57.292a11.458 11.458 0 0111.458 11.457"/><path data-name="Rectángulo 86" d="M256.667 0h91.667v229.166h-91.667z"/><path data-name="Trazado 31" d="M357.5 0v73.333h68.75V229.17h91.667V73.333h68.75V0z"/><path data-name="Trazado 32" d="M595.834 0v73.333h68.75V229.17h91.667V73.333h68.75V0z"/></g></svg>
